X:1
T:Title
%%score { 1 | 2 }
L:1/8
Q:1/4=100
M:4/4
K:Eb
V:1 treble nm="Grand Piano"
V:2 bass 
V:1
 B4 GFG[FA] | [GB]2 [Ac]2 [GB]3 [EG] | [DF]2 [EG]2 [FA]2 [DB]2 | G6 E2 | [Ec]3 [Ec] [EB]2 [EG]2 | %5
w: Robert~Lowry * * * *|||||
 [DB]2 [DB]2 [B,EG]3 [A,DF] | [G,E]2 [CEA]2 [B,EG]3 [A,DF] |[M:3/4] [G,E]6 |[M:1/4] [EB]2 | %9
w: ||||
[M:4/4] [B,GB]3 [B,FA] [B,EG]2 [B,EG]2 | [B,DG]3 [A,DF] [G,E]2 [B,DF]2 | %11
w: ||
 [B,EG][B,FA][GB][Ac] [GB]2 [EG]2 | [DF]6 [DF]2 | G3 F E2 [DF]2 | G2 c2 B3 G | %15
w: ||||
 [A,DF]2 [A,DF]2 [B,DG]3 [A,DF] | [G,E]8 |] %17
w: ||
V:2
 [E,G,E]4 [E,B,E][E,B,D][E,B,E][E,B,] | [E,E]2 [E,E]2 [E,E]3 [E,B,] | %2
 [B,,B,]2 [B,,B,]2 [B,,B,]2 [B,,B,]2 | [E,B,E]6 [E,G,]2 | [A,,A,]3 [C,A,] [E,G,]2 [E,B,]2 | %5
 [B,,B,]2 [B,,B,]2 E,3 B,, | C,2 A,,2 B,,3 B,, |[M:3/4] E,6 |[M:1/4] [E,G,]2 | %9
[M:4/4] E,3 E, E,2 E,2 | B,,3 B,, C,2 B,,2 | E,E,[E,E][E,E] [E,E]2 [E,B,]2 | [B,,B,]6 [B,,B,]2 | %13
 [E,B,E]3 [E,A,D] [E,G,]2 [B,,B,]2 | [E,B,E]2 [E,A,E]2 [E,G,E]3 [E,B,E] | B,,2 B,,2 B,,3 B,, | %16
 E,8 |] %17

